public/correct.svg

<svg width="59" height="85" viewBox="0 0 59 85" fill="none" xmlns="http://www.w3.org/2000/svg">
<g clip-path="url(#clip0_9_90681)">
<path d="M50.8284 0.649057L57.6704 4.59904C57.8106 4.69694 57.922 4.83048 57.9934 4.98588C58.0648 5.14128 58.0934 5.3129 58.0763 5.48304V40.1831C58.0763 56.2831 34.3064 82.465 33.2904 83.575C33.1314 83.7506 32.9474 83.9019 32.7444 84.0241C32.5805 84.1257 32.3946 84.1867 32.2024 84.202C31.5444 84.242 21.2774 84.787 14.1654 80.747V80.752L7.23632 76.752C5.17872 75.689 3.46191 74.0683 2.28234 72.0752C1.10277 70.0821 0.508168 67.7973 0.566402 65.4821V30.776C0.610291 30.3015 0.760932 29.843 1.0072 29.435C1.25346 29.027 1.58896 28.68 1.9884 28.4201C11.4784 22.9451 20.3244 15.191 25.0824 8.18205C25.5634 7.47405 26.2344 7.09106 26.7194 7.24006C31.4694 8.75206 40.3123 6.29504 49.8773 0.771036C50.0079 0.66097 50.1676 0.590996 50.337 0.569528C50.5065 0.548061 50.6785 0.576014 50.8324 0.650034L50.8284 0.649057Z" fill="white"/>
<path d="M1.98535 28.4202C11.4753 22.9452 20.3213 15.1912 25.0793 8.18222C25.5603 7.47422 26.2314 7.09124 26.7164 7.24024C31.4664 8.75224 40.3094 6.29521 49.8744 0.771212C50.0049 0.661033 50.1645 0.590992 50.334 0.569521C50.5034 0.548051 50.6755 0.576066 50.8293 0.65021L57.6704 4.60022C57.5171 4.52875 57.3466 4.50264 57.179 4.52497C57.0113 4.54729 56.8536 4.61714 56.7244 4.72623C47.1544 10.2502 38.3163 12.7072 33.5634 11.1942C33.0793 11.0422 32.4064 11.4312 31.9274 12.1372C27.1714 19.1452 18.3274 26.8992 8.83337 32.3762C8.43314 32.6351 8.09725 32.9819 7.85119 33.3902C7.60513 33.7984 7.45533 34.2574 7.41333 34.7322V69.4372C7.35594 71.7699 7.9605 74.0712 9.15686 76.0745C10.3532 78.0779 12.0924 79.7014 14.1733 80.7572H14.1644L7.23632 76.7572C5.17872 75.6942 3.46204 74.0734 2.28247 72.0804C1.1029 70.0873 0.508167 67.8025 0.566401 65.4872V30.7762C0.610021 30.3019 0.760248 29.8437 1.00598 29.4357C1.2517 29.0277 1.58652 28.6806 1.98535 28.4202Z" fill="#1B69FF"/>
<path d="M30.4275 84.816C31.4735 84.816 32.1324 84.779 32.2374 84.771C32.5207 84.751 32.7952 84.6632 33.0375 84.515C33.2875 84.366 33.5143 84.1811 33.7104 83.966C34.7324 82.849 58.6504 56.511 58.6484 40.187V5.48699C58.6673 5.21734 58.6134 4.94756 58.4924 4.70586C58.3714 4.46415 58.1877 4.2594 57.9604 4.11299L51.1185 0.162005L51.0845 0.143999C50.8421 0.0267132 50.5717 -0.0203804 50.3039 0.00807387C50.0362 0.0365281 49.7818 0.139404 49.5694 0.30501C40.2044 5.71201 31.5025 8.17 26.8955 6.705C26.4421 6.63747 25.9789 6.71326 25.5707 6.92177C25.1624 7.13028 24.8296 7.46109 24.6185 7.868C19.9035 14.813 11.1245 22.501 1.70848 27.934C1.22397 28.2435 0.818114 28.6615 0.523057 29.1549C0.228 29.6484 0.0518822 30.2037 0.00853093 30.777V65.488C-0.0561038 67.896 0.557876 70.2736 1.7805 72.3491C3.00313 74.4246 4.78502 76.1142 6.92247 77.225L6.96141 77.25L13.8895 81.25C13.9168 81.2654 13.9452 81.2788 13.9745 81.29C19.5415 84.422 27.0215 84.816 30.4275 84.816ZM50.5754 1.157L57.3884 5.09099C57.4504 5.12699 57.5134 5.263 57.5124 5.484V40.19C57.5124 56.079 33.8804 82.101 32.8724 83.201C32.752 83.3341 32.6129 83.449 32.4595 83.542C32.3707 83.5972 32.2705 83.6314 32.1665 83.642C31.7315 83.669 21.4455 84.242 14.4415 80.261C14.4171 80.2471 14.3916 80.2351 14.3655 80.225L7.5515 76.29C7.5375 76.281 7.52546 76.272 7.51146 76.264C5.54108 75.2494 3.89677 73.6998 2.7672 71.793C1.63763 69.8862 1.0686 67.6995 1.12547 65.484V30.778C1.16934 30.4027 1.2941 30.0413 1.49107 29.7188C1.68805 29.3963 1.95256 29.1204 2.26647 28.91C11.8185 23.398 20.7395 15.578 25.5425 8.502C25.9155 7.953 26.3715 7.72899 26.5425 7.78099C31.4425 9.33999 40.4874 6.84201 50.1525 1.26201C50.3525 1.12801 50.4895 1.10899 50.5365 1.13799C50.5499 1.14334 50.5629 1.14971 50.5754 1.157Z" fill="#005BEA"/>
<path d="M32.7457 53.4734L40.2788 40.4364L38.2008 39.2364L32.7457 48.6805L25.7767 44.6684C27.3582 41.5229 29.7676 38.8683 32.7457 36.9905C37.8697 34.0335 42.0217 36.4255 42.0217 42.3315C42.0217 48.2375 37.8707 55.4244 32.7457 58.3794C27.6207 61.3344 23.4708 58.9484 23.4688 53.0384C23.4881 51.5123 23.7262 49.9969 24.1758 48.5384L32.7457 53.4734Z" fill="white"/>
<path d="M32.7456 53.4692L44.8976 30.7313L42.8196 29.5312L32.7446 48.6772L24.5516 43.9562L22.4727 47.5502L32.7456 53.4692Z" fill="#1B69FF"/>
</g>
<defs>
<clipPath id="clip0_9_90681">
<rect width="58.648" height="84.817" fill="white"/>
</clipPath>
</defs>
</svg>

<svg xmlns="http://www.w3.org/2000/svg" width="59" height="85" fill="none" viewBox="0 0 59 85"><g clip-path="url(#a)"><path fill="#fff" d="m50.828.65 6.842 3.949a.96.96 0 0 1 .406.884v34.7c0 16.1-23.77 42.282-24.786 43.392a2.4 2.4 0 0 1-.546.45c-.163.1-.35.162-.542.177-.658.04-10.925.585-18.037-3.455v.005l-6.929-4a12.34 12.34 0 0 1-6.67-11.27V30.776a3.16 3.16 0 0 1 1.422-2.356c9.49-5.475 18.336-13.229 23.094-20.238.481-.708 1.152-1.09 1.637-.942 4.75 1.512 13.593-.945 23.158-6.469a.89.89 0 0 1 .955-.121z"/><path fill="#1b69ff" d="M1.985 28.42c9.49-5.475 18.336-13.229 23.094-20.238.481-.708 1.152-1.09 1.637-.942 4.75 1.512 13.593-.945 23.158-6.469a.89.89 0 0 1 .955-.12L57.67 4.6a.89.89 0 0 0-.946.125c-9.57 5.524-18.408 7.981-23.16 6.468-.485-.152-1.158.237-1.637.943-4.756 7.008-13.6 14.762-23.094 20.24a3.14 3.14 0 0 0-1.42 2.355v34.705a12.35 12.35 0 0 0 6.76 11.32h-.009l-6.928-4a12.34 12.34 0 0 1-6.67-11.27v-34.71a3.16 3.16 0 0 1 1.42-2.357"/><path fill="#005bea" d="M30.428 84.816c1.046 0 1.704-.037 1.81-.045.283-.02.557-.108.8-.256q.377-.225.672-.549c1.022-1.117 24.94-27.455 24.938-43.779v-34.7a1.51 1.51 0 0 0-.688-1.374L51.118.162l-.034-.018a1.44 1.44 0 0 0-1.515.161c-9.365 5.407-18.066 7.865-22.674 6.4a2.2 2.2 0 0 0-2.276 1.163c-4.715 6.945-13.494 14.633-22.91 20.066a3.7 3.7 0 0 0-1.7 2.843v34.711a12.84 12.84 0 0 0 6.913 11.737l.04.025 6.928 4a1 1 0 0 0 .085.04c5.567 3.132 13.047 3.526 16.452 3.526M50.575 1.157l6.813 3.934c.062.036.125.172.124.393V40.19c0 15.889-23.632 41.911-24.64 43.011a1.9 1.9 0 0 1-.413.341.7.7 0 0 1-.293.1c-.434.027-10.72.6-17.724-3.381a1 1 0 0 0-.076-.036L7.552 76.29l-.04-.026a11.79 11.79 0 0 1-6.387-10.78V30.778a2.62 2.62 0 0 1 1.141-1.868C11.82 23.398 20.74 15.578 25.543 8.502c.373-.549.829-.773 1-.721 4.9 1.559 13.944-.939 23.61-6.519.2-.134.337-.153.383-.124z"/><path fill="#fff" d="m32.746 53.473 7.533-13.037-2.078-1.2-5.455 9.445-6.97-4.013a19.36 19.36 0 0 1 6.97-7.678c5.124-2.957 9.276-.565 9.276 5.341S37.87 55.424 32.746 58.38s-9.275.57-9.277-5.34a16 16 0 0 1 .707-4.5z"/><path fill="#1b69ff" d="M32.746 53.47 44.898 30.73l-2.078-1.2-10.075 19.146-8.193-4.72-2.08 3.593z"/></g><defs><clipPath id="a"><path fill="#fff" d="M0 0h58.648v84.817H0z"/></clipPath></defs></svg>
